ulm-stories/assets/img/icons/svg/lineartwork/inventoy.svg

<?xml version="1.0" encoding="utf-8"?>
<!-- Generator: Adobe Illustrator 16.0.0, SVG Export Plug-In . SVG Version: 6.00 Build 0)  -->
<!DOCTYPE svg PUBLIC "-//W3C//DTD SVG 1.1//EN" "http://www.w3.org/Graphics/SVG/1.1/DTD/svg11.dtd">
<svg version="1.1" xmlns="http://www.w3.org/2000/svg" xmlns:xlink="http://www.w3.org/1999/xlink" x="0px" y="0px" width="400px"
	 height="400px" viewBox="0 0 400 400" enable-background="new 0 0 400 400" xml:space="preserve">
<g id="Ebene_1">
</g>
<g id="Ebene_2">
	<g>
		<path fill="none" stroke="#000000" stroke-width="10" stroke-miterlimit="10" d="M325,310c0,22-18,40-40,40H115c-22,0-40-18-40-40
			V90c0-22,18-40,40-40h170c22,0,40,18,40,40V310z"/>
	</g>
	<g>
		<path fill="none" stroke="#000000" stroke-width="8" stroke-miterlimit="10" d="M290,296c0,11-9,20-20,20H130c-11,0-20-9-20-20
			v-61c0-11,9-20,20-20h140c11,0,20,9,20,20V296z"/>
	</g>
	<line fill="none" stroke="#000000" stroke-width="8" stroke-miterlimit="10" x1="110" y1="251" x2="290" y2="251"/>
	<g>
		<path fill="none" stroke="#000000" stroke-width="10" stroke-miterlimit="10" d="M325,94c0,23.65-22.5,43-50,43H125
			c-27.5,0-50-19.35-50-43s22.5-43,50-43h150C302.5,51,325,70.35,325,94z"/>
	</g>
	<rect x="143.5" y="50.5" fill="none" stroke="#000000" stroke-width="5" stroke-miterlimit="10" width="13" height="136"/>
	<rect x="243.5" y="50.5" fill="none" stroke="#000000" stroke-width="5" stroke-miterlimit="10" width="13" height="136"/>
</g>
</svg>

<?xml version="1.0" encoding="UTF-8" standalone="no"?>
<!DOCTYPE svg PUBLIC "-//W3C//DTD SVG 1.1//EN" "http://www.w3.org/Graphics/SVG/1.1/DTD/svg11.dtd">
<svg width="100%" height="100%" viewBox="0 0 400 400" version="1.1" xmlns="http://www.w3.org/2000/svg" xmlns:xlink="http://www.w3.org/1999/xlink" xml:space="preserve" xmlns:serif="http://www.serif.com/" style="fill-rule:evenodd;clip-rule:evenodd;stroke-miterlimit:10;">
    <g id="Ebene_2">
        <g>
            <path d="M325,310C325,332 307,350 285,350L115,350C93,350 75,332 75,310L75,90C75,68 93,50 115,50L285,50C307,50 325,68 325,90L325,310Z" style="fill:none;fill-rule:nonzero;stroke:black;stroke-width:10px;"/>
            <path d="M290,296C290,307 281,316 270,316L130,316C119,316 110,307 110,296L110,235C110,224 119,215 130,215L270,215C281,215 290,224 290,235L290,296Z" style="fill:none;fill-rule:nonzero;stroke:black;stroke-width:8px;"/>
            <path d="M110,251L290,251" style="fill:none;fill-rule:nonzero;stroke:black;stroke-width:8px;"/>
            <path d="M325,94C325,117.65 302.5,137 275,137L125,137C97.5,137 75,117.65 75,94C75,70.35 97.5,51 125,51L275,51C302.5,51 325,70.35 325,94Z" style="fill:none;fill-rule:nonzero;stroke:black;stroke-width:10px;"/>
            <rect x="143.5" y="50.5" width="13" height="136" style="fill:none;stroke:black;stroke-width:5px;"/>
            <rect x="243.5" y="50.5" width="13" height="136" style="fill:none;stroke:black;stroke-width:5px;"/>
        </g>
    </g>
</svg>
